NeoWeb/wwwroot/images/wallets/wallets hero banner-dt.svg

<svg viewBox="0 0 1440 428" xmlns="http://www.w3.org/2000/svg" xmlns:xlink="http://www.w3.org/1999/xlink"><linearGradient id="a" gradientUnits="userSpaceOnUse" x1="673.43" x2="360.34" y1="49" y2="418.87"><stop offset=".17" stop-color="#f9fbfb"/><stop offset="1" stop-color="#aeb4b6"/></linearGradient><linearGradient id="b" gradientUnits="userSpaceOnUse" x1="573.46" x2="170.15" y1="-10.69" y2="441.6"><stop offset=".42" stop-color="#f9fbfb"/><stop offset="1" stop-color="#aeb4b6"/></linearGradient><linearGradient id="c" x1="201.88" x2="103.28" xlink:href="#a" y1="312.35" y2="428.84"/><linearGradient id="d" x1="166.78" x2="48.44" xlink:href="#b" y1="303.82" y2="436.53"/><linearGradient id="e" x1="491.88" x2="393.28" xlink:href="#a" y1="380.35" y2="496.84"/><linearGradient id="f" x1="456.78" x2="338.44" xlink:href="#b" y1="371.82" y2="504.53"/><linearGradient id="g" x1="867.88" x2="769.28" xlink:href="#a" y1="355.35" y2="471.84"/><linearGradient id="h" x1="832.78" x2="714.44" xlink:href="#b" y1="346.82" y2="479.53"/><linearGradient id="i" gradientTransform="matrix(.96130979 -.27546958 .27546958 .96130979 -635.14 2227.58)" gradientUnits="userSpaceOnUse" x1="2210.85" x2="2363.52" y1="-1455.25" y2="-1636.64"><stop offset="0" stop-color="#1eb898"/><stop offset=".16" stop-color="#1ec79c"/><stop offset=".42" stop-color="#1ed9a2"/><stop offset=".69" stop-color="#1ee4a5"/><stop offset="1" stop-color="#1ee7a6"/></linearGradient><linearGradient id="j" x1="1459.39" x2="1121.52" xlink:href="#i" y1="359.16" y2="415.47"/><circle cx="1179" cy="261.98" fill="#9ff5d9" r="31"/><path d="m565.58 394.7-321-187.22a18.62 18.62 0 0 1 -.31-32l213-130a33.29 33.29 0 0 1 34.13-.34l321.28 187.44a18.62 18.62 0 0 1 .32 32l-212.73 129.78a33.85 33.85 0 0 1 -34.69.34z" fill="url(#a)"/><path d="m573.45 399-329-191.92a29.12 29.12 0 0 1 -14.45-25.19v-229a14.56 14.56 0 0 1 21.9-12.58l329 191.91a29.12 29.12 0 0 1 14.45 25.16v229a14.56 14.56 0 0 1 -21.9 12.62z" fill="url(#b)"/><path d="m391.13 292.94-106.46-62.1v-71.61a4.24 4.24 0 0 1 6.38-3.67l95.87 55.92a8.5 8.5 0 0 1 4.21 7.34z" fill="#f9fbfb"/><path d="m438.54 141.76-33.46-18.91a10 10 0 0 1 -5.08-8.71v-87.14l46 26v84.43a5 5 0 0 1 -7.46 4.33z" fill="#eeeff0"/><path d="m429 85.24-14-8.11a4 4 0 0 1 -2-3.46v-17.23a2 2 0 0 1 3-1.73l14 8.11a4 4 0 0 1 2 3.46v17.23a2 2 0 0 1 -3 1.73z" fill="#fff"/><path d="m164.47 420.13-94.18-54.94a5.46 5.46 0 0 1 -.09-9.38l67.8-43.45a9.74 9.74 0 0 1 10-.1l94.26 55a5.46 5.46 0 0 1 .09 9.38l-67.71 43.36a9.92 9.92 0 0 1 -10.17.13z" fill="url(#c)"/><path d="m166.78 424-96.54-56.29a8.53 8.53 0 0 1 -4.24-7.38v-67.21a4.28 4.28 0 0 1 6.43-3.69l96.57 56.31a8.56 8.56 0 0 1 4.24 7.39v67.2a4.27 4.27 0 0 1 -6.46 3.67z" fill="url(#d)"/><path d="m454.47 488.13-94.18-54.94a5.46 5.46 0 0 1 -.09-9.38l67.8-43.45a9.74 9.74 0 0 1 10-.1l94.26 55a5.46 5.46 0 0 1 .09 9.38l-67.71 43.36a9.92 9.92 0 0 1 -10.17.13z" fill="url(#e)"/><path d="m456.78 492-96.54-56.31a8.53 8.53 0 0 1 -4.24-7.38v-67.19a4.28 4.28 0 0 1 6.43-3.69l96.57 56.31a8.56 8.56 0 0 1 4.24 7.39v67.2a4.27 4.27 0 0 1 -6.46 3.67z" fill="url(#f)"/><path d="m830.47 463.13-94.18-54.94a5.46 5.46 0 0 1 -.09-9.38l67.8-43.45a9.74 9.74 0 0 1 10-.1l94.26 55a5.46 5.46 0 0 1 .09 9.38l-67.71 43.36a9.92 9.92 0 0 1 -10.17.13z" fill="url(#g)"/><path d="m832.78 467-96.54-56.31a8.53 8.53 0 0 1 -4.24-7.38v-67.19a4.28 4.28 0 0 1 6.43-3.69l96.57 56.31a8.56 8.56 0 0 1 4.24 7.39v67.2a4.27 4.27 0 0 1 -6.46 3.67z" fill="url(#h)"/><circle cx="1160.41" cy="61.16" fill="#9ff5d9" r="82.56"/><circle cx="1160.41" cy="61.16" fill="url(#i)" r="73.99"/><path d="m1122.31 47.59 13.54 47.26 33.83 2.22-13.65-47.65 29.68-21.72-33.2-2.16z" fill="#53edbb"/><path d="m1158.92 50.07 7.4 25.85 33.84 2.2-13.81-48.18z" fill="#53edbb"/><circle cx="1427" cy="116.98" fill="#d1faed" r="31"/><circle cx="1387.41" cy="371.16" fill="#9ff5d9" r="82.56"/><circle cx="1387.41" cy="371.16" fill="url(#j)" r="73.99"/><path d="m1370.06 334.63-23.84 42.99 22.35 25.5 24.04-43.35 36.35 5.62-21.95-25z" fill="#53edbb"/><path d="m1394.2 362.26-13.05 23.52 22.38 25.48 24.3-43.84z" fill="#53edbb"/><circle cx="652" cy="116.98" fill="#02e49b" r="31"/><circle cx="662" cy="356.98" fill="#d1faed" r="31"/></svg>

<svg id="Layer_1" data-name="Layer 1" xmlns="http://www.w3.org/2000/svg" xmlns:xlink="http://www.w3.org/1999/xlink" viewBox="0 0 1440 428"><defs><style>.cls-1{fill:#9ff5d9;}.cls-2{fill:url(#linear-gradient);}.cls-3{fill:url(#linear-gradient-2);}.cls-4{fill:#f9fbfb;}.cls-5{fill:#eeeff0;}.cls-6{fill:#fff;}.cls-7{fill:url(#linear-gradient-3);}.cls-8{fill:url(#linear-gradient-4);}.cls-9{fill:url(#linear-gradient-5);}.cls-10{fill:url(#linear-gradient-6);}.cls-11{fill:url(#linear-gradient-7);}.cls-12{fill:url(#linear-gradient-8);}.cls-13{fill:url(#linear-gradient-9);}.cls-14{fill:#53edbb;}.cls-15{fill:#d1faed;}.cls-16{fill:url(#linear-gradient-10);}.cls-17{fill:#02e49b;}</style><linearGradient id="linear-gradient" x1="673.43" y1="49" x2="360.34" y2="418.87" gradientUnits="userSpaceOnUse"><stop offset="0.17" stop-color="#f9fbfb"/><stop offset="1" stop-color="#aeb4b6"/></linearGradient><linearGradient id="linear-gradient-2" x1="573.46" y1="-10.69" x2="170.15" y2="441.6" gradientUnits="userSpaceOnUse"><stop offset="0.42" stop-color="#f9fbfb"/><stop offset="1" stop-color="#aeb4b6"/></linearGradient><linearGradient id="linear-gradient-3" x1="201.88" y1="312.35" x2="103.28" y2="428.84" xlink:href="#linear-gradient"/><linearGradient id="linear-gradient-4" x1="166.78" y1="303.82" x2="48.44" y2="436.53" xlink:href="#linear-gradient-2"/><linearGradient id="linear-gradient-5" x1="491.88" y1="380.35" x2="393.28" y2="496.84" xlink:href="#linear-gradient"/><linearGradient id="linear-gradient-6" x1="456.78" y1="371.82" x2="338.44" y2="504.53" xlink:href="#linear-gradient-2"/><linearGradient id="linear-gradient-7" x1="867.88" y1="355.35" x2="769.28" y2="471.84" xlink:href="#linear-gradient"/><linearGradient id="linear-gradient-8" x1="832.78" y1="346.82" x2="714.44" y2="479.53" xlink:href="#linear-gradient-2"/><linearGradient id="linear-gradient-9" x1="2210.85" y1="-1455.25" x2="2363.52" y2="-1636.64" gradientTransform="translate(-635.14 2227.58) rotate(-15.99)" gradientUnits="userSpaceOnUse"><stop offset="0" stop-color="#1eb898"/><stop offset="0.16" stop-color="#1ec79c"/><stop offset="0.42" stop-color="#1ed9a2"/><stop offset="0.69" stop-color="#1ee4a5"/><stop offset="1" stop-color="#1ee7a6"/></linearGradient><linearGradient id="linear-gradient-10" x1="1459.39" y1="359.16" x2="1121.52" y2="415.47" gradientTransform="matrix(1, 0, 0, 1, 0, 0)" xlink:href="#linear-gradient-9"/></defs><title>Banner_Wallet_DT</title><circle class="cls-1" cx="1179" cy="261.98" r="31"/><path class="cls-2" d="M565.58,394.7l-321-187.22a18.62,18.62,0,0,1-.31-32l213-130a33.29,33.29,0,0,1,34.13-.34L812.68,232.58a18.62,18.62,0,0,1,.32,32L600.27,394.36A33.85,33.85,0,0,1,565.58,394.7Z"/><path class="cls-3" d="M573.45,399l-329-191.92A29.12,29.12,0,0,1,230,181.89v-229a14.56,14.56,0,0,1,21.9-12.58l329,191.91a29.12,29.12,0,0,1,14.45,25.16v229A14.56,14.56,0,0,1,573.45,399Z"/><path class="cls-4" d="M391.13,292.94l-106.46-62.1V159.23a4.24,4.24,0,0,1,6.38-3.67l95.87,55.92a8.5,8.5,0,0,1,4.21,7.34Z"/><path class="cls-5" d="M438.54,141.76l-33.46-18.91a10,10,0,0,1-5.08-8.71V27l46,26v84.43A5,5,0,0,1,438.54,141.76Z"/><path class="cls-6" d="M429,85.24l-14-8.11a4,4,0,0,1-2-3.46V56.44a2,2,0,0,1,3-1.73l14,8.11a4,4,0,0,1,2,3.46V83.51A2,2,0,0,1,429,85.24Z"/><path class="cls-7" d="M164.47,420.13,70.29,365.19a5.46,5.46,0,0,1-.09-9.38L138,312.36a9.74,9.74,0,0,1,10-.1l94.26,55a5.46,5.46,0,0,1,.09,9.38L174.64,420A9.92,9.92,0,0,1,164.47,420.13Z"/><path class="cls-8" d="M166.78,424,70.24,367.71A8.53,8.53,0,0,1,66,360.33V293.12a4.28,4.28,0,0,1,6.43-3.69L169,345.74a8.56,8.56,0,0,1,4.24,7.39v67.2A4.27,4.27,0,0,1,166.78,424Z"/><path class="cls-9" d="M454.47,488.13l-94.18-54.94a5.46,5.46,0,0,1-.09-9.38L428,380.36a9.74,9.74,0,0,1,10-.1l94.26,55a5.46,5.46,0,0,1,.09,9.38L464.64,488A9.92,9.92,0,0,1,454.47,488.13Z"/><path class="cls-10" d="M456.78,492l-96.54-56.31a8.53,8.53,0,0,1-4.24-7.38V361.12a4.28,4.28,0,0,1,6.43-3.69L459,413.74a8.56,8.56,0,0,1,4.24,7.39v67.2A4.27,4.27,0,0,1,456.78,492Z"/><path class="cls-11" d="M830.47,463.13l-94.18-54.94a5.46,5.46,0,0,1-.09-9.38L804,355.36a9.74,9.74,0,0,1,10-.1l94.26,55a5.46,5.46,0,0,1,.09,9.38L840.64,463A9.92,9.92,0,0,1,830.47,463.13Z"/><path class="cls-12" d="M832.78,467l-96.54-56.31a8.53,8.53,0,0,1-4.24-7.38V336.12a4.28,4.28,0,0,1,6.43-3.69L835,388.74a8.56,8.56,0,0,1,4.24,7.39v67.2A4.27,4.27,0,0,1,832.78,467Z"/><circle class="cls-1" cx="1160.41" cy="61.16" r="82.56"/><circle class="cls-13" cx="1160.41" cy="61.16" r="73.99"/><polygon class="cls-14" points="1122.31 47.59 1135.85 94.85 1169.68 97.07 1156.03 49.42 1185.71 27.7 1152.51 25.54 1122.31 47.59"/><polygon class="cls-14" points="1158.92 50.07 1166.32 75.92 1200.16 78.12 1186.35 29.94 1158.92 50.07"/><circle class="cls-15" cx="1427" cy="116.98" r="31"/><circle class="cls-1" cx="1387.41" cy="371.16" r="82.56"/><circle class="cls-16" cx="1387.41" cy="371.16" r="73.99"/><polygon class="cls-14" points="1370.06 334.63 1346.22 377.62 1368.57 403.12 1392.61 359.77 1428.96 365.39 1407.01 340.39 1370.06 334.63"/><polygon class="cls-14" points="1394.2 362.26 1381.15 385.78 1403.53 411.26 1427.83 367.42 1394.2 362.26"/><circle class="cls-17" cx="652" cy="116.98" r="31"/><circle class="cls-15" cx="662" cy="356.98" r="31"/></svg>
